X: 083
T: Doublings
B: C. & S. Thompson, "The Compleat Tutor for the Fife" c.1760 p.8 #3
S: http://imslp.org/wiki/The_Compleat_Tutor_for_the_Fife_(Anonymous)
Z: 2014 John Chambers <jc:trillian.mit.edu>
M: 2/4
L: 1/16
K: G
% - - - - - - - - - - - - - - - - - - - - - - - - -
[|\
G2FG A2GA | B2AB c2Bc |\
d2cB TA3G | AGFE D4 |\
G2FG A2GA | B2AB c2Bc |
d2cB AcBA | G4   G4 |]\
d2d2 c2c2 | B2B2 A2D2 |\
d2d2 c2c2 | B2B2 A4 |\
G2FG A2GA |
B2AB c2Bc |\
d2cB A2G2 | AGFE D4 |\
G2FG A2GA | B2AB c2Bc |\
dgfg B2cA | G4   G4 |]
% - - - - - - - - - - - - - - - - - - - - - - - - -
